X: 3
T: Eddie's Reel
I: Eddie's ReelR-42Greel
M: C|
R: reel
K: G
G2 |: "G"DGBd gag2| DGBd gag2| DGBd gfed| "D7"c4 cdcB|
     "D7"AFAd fgf2| AFAd fgfe|1 d2d2 eged| "G"B4 BcBA :|2 "D7"d2d2 cAFA| "G"G6|]
\
d2| "G"[B4b4] [B2b2][B2a2]| [B4g4] [B2g2]d2|  [B2b2][B2b2] [B2a2][B2g2]| "D7"[A4f4] [A2f2]d2|
   "D7"[A4a4] [A2a2][A2g2]| [A4f4] [Af][Ag][Af][Ae]| [D2d2][D2d2] [Ae][Ag][Ae][Dc]| "G"[D4B4] [D2B2]d2|
    "G"[B4b4] [B2b2][B2a2]| [B6g6] z2| [B4b4] [B2b2][B2b2]| "C"[c4c'4] [c2c'2][A2e2]|
   "Am"[A4a4] [A2a2][A2g2]| "D7"[A4f4] [Af][Ag][Af][Ae]| d2d2 cAF[DA]| "G"G6 |]
%%text Roaring Jelly  R-42
%%text 08/29/98
